images/272648.svg

<?xml version="1.0" encoding="UTF-8"?>
<svg xmlns="http://www.w3.org/2000/svg" xmlns:xlink="http://www.w3.org/1999/xlink" width="300pt" height="300pt" viewBox="0 0 300 300" version="1.1">
<defs>
<g>
<symbol overflow="visible" id="glyph0-0">
<path style="stroke:none;" d="M 0.546875 1.9375 L 0.546875 -7.75 L 6.046875 -7.75 L 6.046875 1.9375 Z M 1.171875 1.328125 L 5.4375 1.328125 L 5.4375 -7.140625 L 1.171875 -7.140625 Z M 1.171875 1.328125 "/>
</symbol>
<symbol overflow="visible" id="glyph0-1">
<path style="stroke:none;" d="M 4.328125 -7.28125 C 3.546875 -7.28125 2.921875 -6.984375 2.453125 -6.390625 C 1.992188 -5.804688 1.765625 -5.007812 1.765625 -4 C 1.765625 -2.988281 1.992188 -2.1875 2.453125 -1.59375 C 2.921875 -1.007812 3.546875 -0.71875 4.328125 -0.71875 C 5.117188 -0.71875 5.742188 -1.007812 6.203125 -1.59375 C 6.660156 -2.1875 6.890625 -2.988281 6.890625 -4 C 6.890625 -5.007812 6.660156 -5.804688 6.203125 -6.390625 C 5.742188 -6.984375 5.117188 -7.28125 4.328125 -7.28125 Z M 4.328125 -8.171875 C 5.453125 -8.171875 6.351562 -7.789062 7.03125 -7.03125 C 7.707031 -6.28125 8.046875 -5.269531 8.046875 -4 C 8.046875 -2.738281 7.707031 -1.726562 7.03125 -0.96875 C 6.351562 -0.21875 5.453125 0.15625 4.328125 0.15625 C 3.203125 0.15625 2.300781 -0.21875 1.625 -0.96875 C 0.957031 -1.71875 0.625 -2.726562 0.625 -4 C 0.625 -5.269531 0.957031 -6.28125 1.625 -7.03125 C 2.300781 -7.789062 3.203125 -8.171875 4.328125 -8.171875 Z M 4.328125 -8.171875 "/>
</symbol>
<symbol overflow="visible" id="glyph0-2">
<path style="stroke:none;" d="M 7.078125 -7.40625 L 7.078125 -6.25 C 6.710938 -6.59375 6.320312 -6.847656 5.90625 -7.015625 C 5.5 -7.179688 5.0625 -7.265625 4.59375 -7.265625 C 3.675781 -7.265625 2.972656 -6.984375 2.484375 -6.421875 C 2.003906 -5.867188 1.765625 -5.0625 1.765625 -4 C 1.765625 -2.945312 2.003906 -2.140625 2.484375 -1.578125 C 2.972656 -1.015625 3.675781 -0.734375 4.59375 -0.734375 C 5.0625 -0.734375 5.5 -0.816406 5.90625 -0.984375 C 6.320312 -1.148438 6.710938 -1.40625 7.078125 -1.75 L 7.078125 -0.625 C 6.703125 -0.363281 6.300781 -0.164062 5.875 -0.03125 C 5.457031 0.09375 5.007812 0.15625 4.53125 0.15625 C 3.320312 0.15625 2.367188 -0.210938 1.671875 -0.953125 C 0.972656 -1.703125 0.625 -2.71875 0.625 -4 C 0.625 -5.289062 0.972656 -6.304688 1.671875 -7.046875 C 2.367188 -7.796875 3.320312 -8.171875 4.53125 -8.171875 C 5.007812 -8.171875 5.460938 -8.101562 5.890625 -7.96875 C 6.316406 -7.84375 6.710938 -7.65625 7.078125 -7.40625 Z M 7.078125 -7.40625 "/>
</symbol>
<symbol overflow="visible" id="glyph0-3">
<path style="stroke:none;" d="M 1.03125 -8.359375 L 2.03125 -8.359375 L 2.03125 0 L 1.03125 0 Z M 1.03125 -8.359375 "/>
</symbol>
<symbol overflow="visible" id="glyph0-4">
<path style="stroke:none;" d="M 1.078125 -8.015625 L 2.171875 -8.015625 L 2.171875 -4.734375 L 6.109375 -4.734375 L 6.109375 -8.015625 L 7.1875 -8.015625 L 7.1875 0 L 6.109375 0 L 6.109375 -3.8125 L 2.171875 -3.8125 L 2.171875 0 L 1.078125 0 Z M 1.078125 -8.015625 "/>
</symbol>
</g>
</defs>
<g id="surface48361">
<rect x="0" y="0" width="300" height="300" style="fill:rgb(100%,100%,100%);fill-opacity:1;stroke:none;"/>
<path style="fill:none;stroke-width:1.2;stroke-linecap:butt;stroke-linejoin:miter;stroke:rgb(0%,0%,0%);stroke-opacity:1;stroke-miterlimit:10;" d="M 35.25 123.5 L 35.25 97 "/>
<path style="fill:none;stroke-width:1.2;stroke-linecap:butt;stroke-linejoin:miter;stroke:rgb(0%,0%,0%);stroke-opacity:1;stroke-miterlimit:10;" d="M 41.484375 120.847656 L 41.484375 99.648438 "/>
<path style="fill:none;stroke-width:1.2;stroke-linecap:butt;stroke-linejoin:miter;stroke:rgb(0%,0%,0%);stroke-opacity:1;stroke-miterlimit:10;" d="M 58.199219 136.75 L 35.25 123.5 "/>
<path style="fill:none;stroke-width:1.2;stroke-linecap:butt;stroke-linejoin:miter;stroke:rgb(0%,0%,0%);stroke-opacity:1;stroke-miterlimit:10;" d="M 35.25 97 L 58.199219 83.75 "/>
<path style="fill:none;stroke-width:1.2;stroke-linecap:butt;stroke-linejoin:miter;stroke:rgb(0%,0%,0%);stroke-opacity:1;stroke-miterlimit:10;" d="M 58.199219 83.75 L 81.148438 97 "/>
<path style="fill:none;stroke-width:1.2;stroke-linecap:butt;stroke-linejoin:miter;stroke:rgb(0%,0%,0%);stroke-opacity:1;stroke-miterlimit:10;" d="M 57.378906 90.472656 L 75.738281 101.074219 "/>
<path style="fill:none;stroke-width:1.2;stroke-linecap:butt;stroke-linejoin:miter;stroke:rgb(0%,0%,0%);stroke-opacity:1;stroke-miterlimit:10;" d="M 81.148438 97 L 81.148438 123.5 "/>
<path style="fill:none;stroke-width:1.2;stroke-linecap:butt;stroke-linejoin:miter;stroke:rgb(0%,0%,0%);stroke-opacity:1;stroke-miterlimit:10;" d="M 104.101562 83.75 L 81.148438 97 "/>
<path style="fill:none;stroke-width:1.2;stroke-linecap:butt;stroke-linejoin:miter;stroke:rgb(0%,0%,0%);stroke-opacity:1;stroke-miterlimit:10;" d="M 81.148438 123.5 L 58.199219 136.75 "/>
<path style="fill:none;stroke-width:1.2;stroke-linecap:butt;stroke-linejoin:miter;stroke:rgb(0%,0%,0%);stroke-opacity:1;stroke-miterlimit:10;" d="M 75.738281 119.425781 L 57.378906 130.023438 "/>
<path style="fill:none;stroke-width:1.2;stroke-linecap:butt;stroke-linejoin:miter;stroke:rgb(0%,0%,0%);stroke-opacity:1;stroke-miterlimit:10;" d="M 81.148438 123.5 L 104.101562 136.75 "/>
<path style="fill:none;stroke-width:1.2;stroke-linecap:butt;stroke-linejoin:miter;stroke:rgb(0%,0%,0%);stroke-opacity:1;stroke-miterlimit:10;" d="M 104.101562 136.75 L 127.050781 123.5 "/>
<path style="fill:none;stroke-width:1.2;stroke-linecap:butt;stroke-linejoin:miter;stroke:rgb(0%,0%,0%);stroke-opacity:1;stroke-miterlimit:10;" d="M 103.277344 130.023438 L 121.636719 119.425781 "/>
<path style="fill:none;stroke-width:1.2;stroke-linecap:butt;stroke-linejoin:miter;stroke:rgb(0%,0%,0%);stroke-opacity:1;stroke-miterlimit:10;" d="M 104.101562 136.75 L 104.101562 150 "/>
<path style="fill:none;stroke-width:1.2;stroke-linecap:butt;stroke-linejoin:miter;stroke:rgb(100%,0%,0%);stroke-opacity:1;stroke-miterlimit:10;" d="M 104.101562 150 L 104.101562 163.25 "/>
<path style="fill:none;stroke-width:1.2;stroke-linecap:butt;stroke-linejoin:miter;stroke:rgb(0%,0%,0%);stroke-opacity:1;stroke-miterlimit:10;" d="M 127.050781 123.5 L 127.050781 97 "/>
<path style="fill:none;stroke-width:1.2;stroke-linecap:butt;stroke-linejoin:miter;stroke:rgb(0%,0%,0%);stroke-opacity:1;stroke-miterlimit:10;" d="M 127.050781 123.5 L 150 136.75 "/>
<path style="fill:none;stroke-width:1.2;stroke-linecap:butt;stroke-linejoin:miter;stroke:rgb(0%,0%,0%);stroke-opacity:1;stroke-miterlimit:10;" d="M 128.925781 99.488281 L 135.867188 94.257812 "/>
<path style="fill:none;stroke-width:1.2;stroke-linecap:butt;stroke-linejoin:miter;stroke:rgb(100%,0%,0%);stroke-opacity:1;stroke-miterlimit:10;" d="M 135.867188 94.257812 L 142.8125 89.023438 "/>
<path style="fill:none;stroke-width:1.2;stroke-linecap:butt;stroke-linejoin:miter;stroke:rgb(0%,0%,0%);stroke-opacity:1;stroke-miterlimit:10;" d="M 125.171875 94.507812 L 132.117188 89.277344 "/>
<path style="fill:none;stroke-width:1.2;stroke-linecap:butt;stroke-linejoin:miter;stroke:rgb(100%,0%,0%);stroke-opacity:1;stroke-miterlimit:10;" d="M 132.117188 89.277344 L 139.058594 84.046875 "/>
<path style="fill:none;stroke-width:1.2;stroke-linecap:butt;stroke-linejoin:miter;stroke:rgb(0%,0%,0%);stroke-opacity:1;stroke-miterlimit:10;" d="M 127.050781 97 L 104.101562 83.75 "/>
<path style=" stroke:none;fill-rule:nonzero;fill:rgb(100%,100%,100%);fill-opacity:1;" d="M 136.933594 80.035156 L 145.933594 80.035156 L 145.933594 93.035156 L 136.933594 93.035156 Z M 136.933594 80.035156 "/>
<g style="fill:rgb(100%,0%,0%);fill-opacity:1;">
  <use xlink:href="#glyph0-1" x="136.933594" y="89.936523"/>
</g>
<path style="fill:none;stroke-width:1.2;stroke-linecap:butt;stroke-linejoin:miter;stroke:rgb(0%,0%,0%);stroke-opacity:1;stroke-miterlimit:10;" d="M 107.21875 83.75 L 107.21875 70.5 "/>
<path style="fill:none;stroke-width:1.2;stroke-linecap:butt;stroke-linejoin:miter;stroke:rgb(100%,0%,0%);stroke-opacity:1;stroke-miterlimit:10;" d="M 107.21875 70.5 L 107.21875 57.25 "/>
<path style="fill:none;stroke-width:1.2;stroke-linecap:butt;stroke-linejoin:miter;stroke:rgb(0%,0%,0%);stroke-opacity:1;stroke-miterlimit:10;" d="M 100.980469 83.75 L 100.980469 70.5 "/>
<path style="fill:none;stroke-width:1.2;stroke-linecap:butt;stroke-linejoin:miter;stroke:rgb(100%,0%,0%);stroke-opacity:1;stroke-miterlimit:10;" d="M 100.980469 70.5 L 100.980469 57.25 "/>
<path style=" stroke:none;fill-rule:nonzero;fill:rgb(100%,100%,100%);fill-opacity:1;" d="M 100.101562 50.75 L 109.101562 50.75 L 109.101562 63.75 L 100.101562 63.75 Z M 100.101562 50.75 "/>
<g style="fill:rgb(100%,0%,0%);fill-opacity:1;">
  <use xlink:href="#glyph0-1" x="100.101562" y="60.651367"/>
</g>
<path style="fill:none;stroke-width:1.2;stroke-linecap:butt;stroke-linejoin:miter;stroke:rgb(0%,0%,0%);stroke-opacity:1;stroke-miterlimit:10;" d="M 150 136.75 L 150 163.25 "/>
<path style="fill:none;stroke-width:1.2;stroke-linecap:butt;stroke-linejoin:miter;stroke:rgb(0%,0%,0%);stroke-opacity:1;stroke-miterlimit:10;" d="M 150 136.75 L 172.949219 123.5 "/>
<path style="fill:none;stroke-width:1.2;stroke-linecap:butt;stroke-linejoin:miter;stroke:rgb(0%,0%,0%);stroke-opacity:1;stroke-miterlimit:10;" d="M 150 163.25 L 127.050781 176.5 "/>
<path style="fill:none;stroke-width:1.2;stroke-linecap:butt;stroke-linejoin:miter;stroke:rgb(0%,0%,0%);stroke-opacity:1;stroke-miterlimit:10;" d="M 150.824219 169.976562 L 132.460938 180.574219 "/>
<path style="fill:none;stroke-width:1.2;stroke-linecap:butt;stroke-linejoin:miter;stroke:rgb(0%,0%,0%);stroke-opacity:1;stroke-miterlimit:10;" d="M 172.949219 176.5 L 150 163.25 "/>
<path style="fill:none;stroke-width:1.2;stroke-linecap:butt;stroke-linejoin:miter;stroke:rgb(0%,0%,0%);stroke-opacity:1;stroke-miterlimit:10;" d="M 127.050781 176.5 L 127.050781 203 "/>
<path style="fill:none;stroke-width:1.2;stroke-linecap:butt;stroke-linejoin:miter;stroke:rgb(0%,0%,0%);stroke-opacity:1;stroke-miterlimit:10;" d="M 127.050781 203 L 150 216.25 "/>
<path style="fill:none;stroke-width:1.2;stroke-linecap:butt;stroke-linejoin:miter;stroke:rgb(0%,0%,0%);stroke-opacity:1;stroke-miterlimit:10;" d="M 132.460938 198.925781 L 150.824219 209.527344 "/>
<path style="fill:none;stroke-width:1.2;stroke-linecap:butt;stroke-linejoin:miter;stroke:rgb(0%,0%,0%);stroke-opacity:1;stroke-miterlimit:10;" d="M 150 216.25 L 172.949219 203 "/>
<path style="fill:none;stroke-width:1.2;stroke-linecap:butt;stroke-linejoin:miter;stroke:rgb(0%,0%,0%);stroke-opacity:1;stroke-miterlimit:10;" d="M 150 216.25 L 150 229.5 "/>
<path style="fill:none;stroke-width:1.2;stroke-linecap:butt;stroke-linejoin:miter;stroke:rgb(0%,80%,0%);stroke-opacity:1;stroke-miterlimit:10;" d="M 150 229.5 L 150 242.75 "/>
<path style="fill:none;stroke-width:1.2;stroke-linecap:butt;stroke-linejoin:miter;stroke:rgb(0%,0%,0%);stroke-opacity:1;stroke-miterlimit:10;" d="M 172.949219 203 L 172.949219 176.5 "/>
<path style="fill:none;stroke-width:1.2;stroke-linecap:butt;stroke-linejoin:miter;stroke:rgb(0%,0%,0%);stroke-opacity:1;stroke-miterlimit:10;" d="M 166.714844 200.351562 L 166.714844 179.152344 "/>
<path style=" stroke:none;fill-rule:nonzero;fill:rgb(100%,100%,100%);fill-opacity:1;" d="M 145 236.25 L 156 236.25 L 156 249.25 L 145 249.25 Z M 145 236.25 "/>
<g style="fill:rgb(0%,80%,0%);fill-opacity:1;">
  <use xlink:href="#glyph0-2" x="145" y="246.151367"/>
  <use xlink:href="#glyph0-3" x="152.451172" y="246.151367"/>
</g>
<path style="fill:none;stroke-width:1.2;stroke-linecap:butt;stroke-linejoin:miter;stroke:rgb(0%,0%,0%);stroke-opacity:1;stroke-miterlimit:10;" d="M 172.949219 123.5 L 195.898438 136.75 "/>
<path style="fill:none;stroke-width:1.2;stroke-linecap:butt;stroke-linejoin:miter;stroke:rgb(0%,0%,0%);stroke-opacity:1;stroke-miterlimit:10;" d="M 178.363281 119.425781 L 196.722656 130.023438 "/>
<path style="fill:none;stroke-width:1.2;stroke-linecap:butt;stroke-linejoin:miter;stroke:rgb(0%,0%,0%);stroke-opacity:1;stroke-miterlimit:10;" d="M 172.949219 97 L 172.949219 123.5 "/>
<path style="fill:none;stroke-width:1.2;stroke-linecap:butt;stroke-linejoin:miter;stroke:rgb(0%,0%,0%);stroke-opacity:1;stroke-miterlimit:10;" d="M 195.898438 136.75 L 218.851562 123.5 "/>
<path style="fill:none;stroke-width:1.2;stroke-linecap:butt;stroke-linejoin:miter;stroke:rgb(0%,0%,0%);stroke-opacity:1;stroke-miterlimit:10;" d="M 195.898438 136.75 L 195.898438 150 "/>
<path style="fill:none;stroke-width:1.2;stroke-linecap:butt;stroke-linejoin:miter;stroke:rgb(100%,0%,0%);stroke-opacity:1;stroke-miterlimit:10;" d="M 195.898438 150 L 195.898438 163.25 "/>
<path style="fill:none;stroke-width:1.2;stroke-linecap:butt;stroke-linejoin:miter;stroke:rgb(0%,0%,0%);stroke-opacity:1;stroke-miterlimit:10;" d="M 218.851562 123.5 L 241.800781 136.75 "/>
<path style="fill:none;stroke-width:1.2;stroke-linecap:butt;stroke-linejoin:miter;stroke:rgb(0%,0%,0%);stroke-opacity:1;stroke-miterlimit:10;" d="M 224.261719 119.425781 L 242.621094 130.023438 "/>
<path style="fill:none;stroke-width:1.2;stroke-linecap:butt;stroke-linejoin:miter;stroke:rgb(0%,0%,0%);stroke-opacity:1;stroke-miterlimit:10;" d="M 218.851562 97 L 218.851562 123.5 "/>
<path style="fill:none;stroke-width:1.2;stroke-linecap:butt;stroke-linejoin:miter;stroke:rgb(0%,0%,0%);stroke-opacity:1;stroke-miterlimit:10;" d="M 241.800781 136.75 L 264.75 123.5 "/>
<path style="fill:none;stroke-width:1.2;stroke-linecap:butt;stroke-linejoin:miter;stroke:rgb(0%,0%,0%);stroke-opacity:1;stroke-miterlimit:10;" d="M 264.75 123.5 L 264.75 97 "/>
<path style="fill:none;stroke-width:1.2;stroke-linecap:butt;stroke-linejoin:miter;stroke:rgb(0%,0%,0%);stroke-opacity:1;stroke-miterlimit:10;" d="M 258.515625 120.847656 L 258.515625 99.648438 "/>
<path style="fill:none;stroke-width:1.2;stroke-linecap:butt;stroke-linejoin:miter;stroke:rgb(0%,0%,0%);stroke-opacity:1;stroke-miterlimit:10;" d="M 264.75 97 L 241.800781 83.75 "/>
<path style="fill:none;stroke-width:1.2;stroke-linecap:butt;stroke-linejoin:miter;stroke:rgb(0%,0%,0%);stroke-opacity:1;stroke-miterlimit:10;" d="M 241.800781 83.75 L 218.851562 97 "/>
<path style="fill:none;stroke-width:1.2;stroke-linecap:butt;stroke-linejoin:miter;stroke:rgb(0%,0%,0%);stroke-opacity:1;stroke-miterlimit:10;" d="M 242.621094 90.472656 L 224.261719 101.074219 "/>
<path style="fill:none;stroke-width:1.2;stroke-linecap:butt;stroke-linejoin:miter;stroke:rgb(0%,0%,0%);stroke-opacity:1;stroke-miterlimit:10;" d="M 218.851562 97 L 195.898438 83.75 "/>
<path style="fill:none;stroke-width:1.2;stroke-linecap:butt;stroke-linejoin:miter;stroke:rgb(0%,0%,0%);stroke-opacity:1;stroke-miterlimit:10;" d="M 199.019531 83.75 L 199.019531 70.5 "/>
<path style="fill:none;stroke-width:1.2;stroke-linecap:butt;stroke-linejoin:miter;stroke:rgb(100%,0%,0%);stroke-opacity:1;stroke-miterlimit:10;" d="M 199.019531 70.5 L 199.019531 57.25 "/>
<path style="fill:none;stroke-width:1.2;stroke-linecap:butt;stroke-linejoin:miter;stroke:rgb(0%,0%,0%);stroke-opacity:1;stroke-miterlimit:10;" d="M 192.78125 83.75 L 192.78125 70.5 "/>
<path style="fill:none;stroke-width:1.2;stroke-linecap:butt;stroke-linejoin:miter;stroke:rgb(100%,0%,0%);stroke-opacity:1;stroke-miterlimit:10;" d="M 192.78125 70.5 L 192.78125 57.25 "/>
<path style="fill:none;stroke-width:1.2;stroke-linecap:butt;stroke-linejoin:miter;stroke:rgb(0%,0%,0%);stroke-opacity:1;stroke-miterlimit:10;" d="M 195.898438 83.75 L 172.949219 97 "/>
<path style=" stroke:none;fill-rule:nonzero;fill:rgb(100%,100%,100%);fill-opacity:1;" d="M 191.898438 50.75 L 200.898438 50.75 L 200.898438 63.75 L 191.898438 63.75 Z M 191.898438 50.75 "/>
<g style="fill:rgb(100%,0%,0%);fill-opacity:1;">
  <use xlink:href="#glyph0-1" x="191.898438" y="60.651367"/>
</g>
<path style="fill:none;stroke-width:1.2;stroke-linecap:butt;stroke-linejoin:miter;stroke:rgb(0%,0%,0%);stroke-opacity:1;stroke-miterlimit:10;" d="M 174.828125 94.507812 L 167.882812 89.277344 "/>
<path style="fill:none;stroke-width:1.2;stroke-linecap:butt;stroke-linejoin:miter;stroke:rgb(100%,0%,0%);stroke-opacity:1;stroke-miterlimit:10;" d="M 167.882812 89.277344 L 160.941406 84.046875 "/>
<path style="fill:none;stroke-width:1.2;stroke-linecap:butt;stroke-linejoin:miter;stroke:rgb(0%,0%,0%);stroke-opacity:1;stroke-miterlimit:10;" d="M 171.074219 99.488281 L 164.132812 94.257812 "/>
<path style="fill:none;stroke-width:1.2;stroke-linecap:butt;stroke-linejoin:miter;stroke:rgb(100%,0%,0%);stroke-opacity:1;stroke-miterlimit:10;" d="M 164.132812 94.257812 L 157.1875 89.023438 "/>
<path style=" stroke:none;fill-rule:nonzero;fill:rgb(100%,100%,100%);fill-opacity:1;" d="M 150.066406 80.035156 L 159.066406 80.035156 L 159.066406 93.035156 L 150.066406 93.035156 Z M 150.066406 80.035156 "/>
<g style="fill:rgb(100%,0%,0%);fill-opacity:1;">
  <use xlink:href="#glyph0-1" x="150.066406" y="89.936523"/>
</g>
<path style=" stroke:none;fill-rule:nonzero;fill:rgb(100%,100%,100%);fill-opacity:1;" d="M 187.898438 156.75 L 204.898438 156.75 L 204.898438 169.75 L 187.898438 169.75 Z M 187.898438 156.75 "/>
<g style="fill:rgb(100%,0%,0%);fill-opacity:1;">
  <use xlink:href="#glyph0-1" x="187.898438" y="166.651367"/>
  <use xlink:href="#glyph0-4" x="196.298828" y="166.651367"/>
</g>
<path style=" stroke:none;fill-rule:nonzero;fill:rgb(100%,100%,100%);fill-opacity:1;" d="M 96.101562 156.75 L 113.101562 156.75 L 113.101562 169.75 L 96.101562 169.75 Z M 96.101562 156.75 "/>
<g style="fill:rgb(100%,0%,0%);fill-opacity:1;">
  <use xlink:href="#glyph0-1" x="96.101562" y="166.651367"/>
  <use xlink:href="#glyph0-4" x="104.501953" y="166.651367"/>
</g>
</g>
</svg>

<svg xmlns="http://www.w3.org/2000/svg" xmlns:xlink="http://www.w3.org/1999/xlink" width="300pt" height="300pt" viewBox="0 0 300 300"><defs><symbol overflow="visible"><path d="M.547 1.938V-7.75h5.5v9.688zm.625-.61h4.266v-8.47H1.171zm0 0"/></symbol><symbol overflow="visible" id="a"><path d="M4.328-7.28c-.78 0-1.406.296-1.875.89-.46.585-.687 1.382-.687 2.39 0 1.012.226 1.813.687 2.406.47.586 1.094.875 1.875.875.79 0 1.414-.288 1.875-.874.457-.593.688-1.394.688-2.406 0-1.008-.23-1.805-.687-2.39-.46-.594-1.086-.89-1.875-.89zm0-.892c1.125 0 2.024.383 2.703 1.14C7.708-6.28 8.048-5.27 8.048-4c0 1.262-.34 2.273-1.016 3.03C6.353-.22 5.454.157 4.33.157S2.3-.22 1.625-.97c-.668-.75-1-1.757-1-3.03 0-1.27.332-2.28 1-3.03.676-.76 1.578-1.142 2.703-1.142zm0 0"/></symbol><symbol overflow="visible" id="b"><path d="M7.078-7.406v1.156c-.367-.344-.758-.598-1.172-.766-.406-.164-.843-.25-1.312-.25-.918 0-1.62.282-2.11.844-.48.555-.718 1.36-.718 2.422 0 1.055.238 1.86.718 2.422.49.562 1.192.844 2.11.844.468 0 .906-.082 1.312-.25.414-.164.805-.422 1.172-.766v1.125c-.375.262-.777.46-1.203.594-.418.124-.867.186-1.344.186-1.21 0-2.163-.367-2.858-1.11C.972-1.703.625-2.718.625-4c0-1.29.348-2.305 1.047-3.047.695-.75 1.648-1.125 2.86-1.125.476 0 .93.07 1.36.203.424.126.82.314 1.186.564zm0 0"/></symbol><symbol overflow="visible" id="c"><path d="M1.03-8.36h1V0h-1zm0 0"/></symbol><symbol overflow="visible" id="d"><path d="M1.078-8.016h1.094v3.282H6.11v-3.282h1.077V0H6.11v-3.813H2.17V0H1.078zm0 0"/></symbol></defs><g><path fill="#fff" d="M0 0h300v300H0z"/><path d="M35.25 123.5V97M41.484 120.848v-21.2M58.2 136.75L35.25 123.5M35.25 97L58.2 83.75M58.2 83.75L81.147 97M57.38 90.473l18.358 10.6M81.148 97v26.5M104.102 83.75L81.148 97M81.148 123.5l-22.95 13.25M75.738 119.426l-18.36 10.597M81.148 123.5l22.954 13.25M104.102 136.75l22.95-13.25M103.277 130.023l18.36-10.597M104.102 136.75V150" stroke-width="1.2" stroke="#000" stroke-miterlimit="10" fill="none"/><path d="M104.102 150v13.25" stroke-width="1.2" stroke="#f00" stroke-miterlimit="10" fill="none"/><path d="M127.05 123.5V97M127.05 123.5L150 136.75M128.926 99.488l6.94-5.23" stroke-width="1.2" stroke="#000" stroke-miterlimit="10" fill="none"/><path d="M135.867 94.258l6.946-5.235" stroke-width="1.2" stroke="#f00" stroke-miterlimit="10" fill="none"/><path d="M125.172 94.508l6.945-5.23" stroke-width="1.2" stroke="#000" stroke-miterlimit="10" fill="none"/><path d="M132.117 89.277l6.942-5.23" stroke-width="1.2" stroke="#f00" stroke-miterlimit="10" fill="none"/><path d="M127.05 97l-22.948-13.25" stroke-width="1.2" stroke="#000" stroke-miterlimit="10" fill="none"/><path d="M136.934 80.035h9v13h-9zm0 0" fill="#fff"/><use xlink:href="#a" x="136.934" y="89.937" fill="#f00"/><path d="M107.22 83.75V70.5" stroke-width="1.2" stroke="#000" stroke-miterlimit="10" fill="none"/><path d="M107.22 70.5V57.25" stroke-width="1.2" stroke="#f00" stroke-miterlimit="10" fill="none"/><path d="M100.98 83.75V70.5" stroke-width="1.2" stroke="#000" stroke-miterlimit="10" fill="none"/><path d="M100.98 70.5V57.25" stroke-width="1.2" stroke="#f00" stroke-miterlimit="10" fill="none"/><path d="M100.102 50.75h9v13h-9zm0 0" fill="#fff"/><use xlink:href="#a" x="100.102" y="60.651" fill="#f00"/><path d="M150 136.75v26.5M150 136.75l22.95-13.25M150 163.25l-22.95 13.25M150.824 169.977l-18.363 10.597M172.95 176.5L150 163.25M127.05 176.5V203M127.05 203L150 216.25M132.46 198.926l18.364 10.6M150 216.25L172.95 203M150 216.25v13.25" stroke-width="1.2" stroke="#000" stroke-miterlimit="10" fill="none"/><path d="M150 229.5v13.25" stroke-width="1.2" stroke="#0c0" stroke-miterlimit="10" fill="none"/><path d="M172.95 203v-26.5M166.715 200.352v-21.2" stroke-width="1.2" stroke="#000" stroke-miterlimit="10" fill="none"/><path d="M145 236.25h11v13h-11zm0 0" fill="#fff"/><g fill="#0c0"><use xlink:href="#b" x="145" y="246.151"/><use xlink:href="#c" x="152.451" y="246.151"/></g><path d="M172.95 123.5l22.948 13.25M178.363 119.426l18.36 10.597M172.95 97v26.5M195.898 136.75l22.954-13.25M195.898 136.75V150" stroke-width="1.2" stroke="#000" stroke-miterlimit="10" fill="none"/><path d="M195.898 150v13.25" stroke-width="1.2" stroke="#f00" stroke-miterlimit="10" fill="none"/><path d="M218.852 123.5l22.95 13.25M224.262 119.426l18.36 10.597M218.852 97v26.5M241.8 136.75l22.95-13.25M264.75 123.5V97M258.516 120.848v-21.2M264.75 97L241.8 83.75M241.8 83.75L218.853 97M242.62 90.473l-18.358 10.6M218.852 97l-22.954-13.25M199.02 83.75V70.5" stroke-width="1.2" stroke="#000" stroke-miterlimit="10" fill="none"/><path d="M199.02 70.5V57.25" stroke-width="1.2" stroke="#f00" stroke-miterlimit="10" fill="none"/><path d="M192.78 83.75V70.5" stroke-width="1.2" stroke="#000" stroke-miterlimit="10" fill="none"/><path d="M192.78 70.5V57.25" stroke-width="1.2" stroke="#f00" stroke-miterlimit="10" fill="none"/><path d="M195.898 83.75L172.948 97" stroke-width="1.2" stroke="#000" stroke-miterlimit="10" fill="none"/><path d="M191.898 50.75h9v13h-9zm0 0" fill="#fff"/><use xlink:href="#a" x="191.898" y="60.651" fill="#f00"/><path d="M174.828 94.508l-6.945-5.23" stroke-width="1.2" stroke="#000" stroke-miterlimit="10" fill="none"/><path d="M167.883 89.277l-6.942-5.23" stroke-width="1.2" stroke="#f00" stroke-miterlimit="10" fill="none"/><path d="M171.074 99.488l-6.94-5.23" stroke-width="1.2" stroke="#000" stroke-miterlimit="10" fill="none"/><path d="M164.133 94.258l-6.946-5.235" stroke-width="1.2" stroke="#f00" stroke-miterlimit="10" fill="none"/><path d="M150.066 80.035h9v13h-9zm0 0" fill="#fff"/><use xlink:href="#a" x="150.066" y="89.937" fill="#f00"/><path d="M187.898 156.75h17v13h-17zm0 0" fill="#fff"/><g fill="#f00"><use xlink:href="#a" x="187.898" y="166.651"/><use xlink:href="#d" x="196.299" y="166.651"/></g><path d="M96.102 156.75h17v13h-17zm0 0" fill="#fff"/><g fill="#f00"><use xlink:href="#a" x="96.102" y="166.651"/><use xlink:href="#d" x="104.502" y="166.651"/></g></g></svg>
